src/img/catalog/phone.svg

<svg width="19" height="20" viewBox="0 0 19 20" fill="none" xmlns="http://www.w3.org/2000/svg">
<g id="bb5ed73c-b090-4e88-9564-a52dce9f38a8" clip-path="url(#clip0_556_351)">
<path id="Vector" d="M14.2385 19.0221C13.3853 18.9405 12.5471 18.7443 11.7464 18.4387C9.70861 17.6826 7.9252 16.5071 6.29002 15.0962C4.24029 13.3271 2.53139 11.2806 1.27429 8.87256C0.679522 7.75976 0.261311 6.56127 0.0346289 5.32002C-0.0390852 4.89676 -0.00421194 4.51868 0.228027 4.14694C1.09991 2.75667 2.10655 1.48293 3.36761 0.421603C3.44688 0.353437 3.53724 0.296368 3.62284 0.234543C4.15707 -0.152257 4.6049 -0.0309856 5.09553 0.365327C5.1574 0.415158 5.21209 0.473306 5.25802 0.538119C6.12991 1.77224 6.97564 3.02537 7.61053 4.40533C7.6993 4.61157 7.7745 4.82339 7.83564 5.03943C7.89378 5.20286 7.90538 5.37922 7.86913 5.54886C7.83288 5.71849 7.75021 5.87471 7.63035 6.00009C7.32439 6.32586 6.98753 6.62468 6.65066 6.92033C6.20521 7.31109 6.1949 7.30713 6.42793 7.85166C7.41396 10.1534 9.07239 11.7617 11.4032 12.6764C11.6172 12.7612 11.7504 12.7556 11.9026 12.5591C12.1792 12.2063 12.4836 11.875 12.7872 11.5445C13.1779 11.1197 13.659 10.9897 14.1885 11.2275C14.8519 11.5187 15.4991 11.8455 16.1273 12.2063C16.9033 12.6676 17.6436 13.1892 18.3942 13.6941C18.6857 13.8951 18.8908 14.1984 18.9688 14.5438C18.9976 14.6389 19.0064 14.7388 18.9946 14.8375C18.9829 14.9361 18.9509 15.0312 18.9007 15.1169C18.7799 15.3362 18.6395 15.5442 18.4814 15.7383C17.3951 16.9761 16.1124 18.0267 14.6847 18.8477C14.5415 18.9191 14.3921 18.9775 14.2385 19.0221Z" fill="#D3D3D3"/>
</g>
<defs>
<clipPath id="clip0_556_351">
<rect width="19" height="19.0222" fill="white"/>
</clipPath>
</defs>
</svg>

<svg width="19" height="20" fill="none" xmlns="http://www.w3.org/2000/svg"><g id="bb5ed73c-b090-4e88-9564-a52dce9f38a8" clip-path="url(#clip0_556_351)"><path id="Vector" d="M14.239 19.022a9.534 9.534 0 01-2.493-.583c-2.037-.756-3.82-1.932-5.456-3.343-2.05-1.769-3.759-3.815-5.016-6.223A12.178 12.178 0 01.034 5.32c-.073-.423-.038-.801.194-1.173.872-1.39 1.879-2.664 3.14-3.725.079-.069.17-.126.255-.187.534-.387.982-.266 1.473.13.061.05.116.108.162.173.872 1.234 1.718 2.487 2.353 3.867.088.207.163.418.225.634A.936.936 0 017.63 6c-.306.326-.642.625-.98.92-.445.391-.455.387-.222.932.986 2.301 2.644 3.91 4.975 4.824.214.085.347.08.5-.117.276-.353.58-.684.884-1.014.39-.425.872-.555 1.401-.318.664.292 1.311.618 1.94.98.775.46 1.516.982 2.266 1.487.292.201.497.504.575.85a.719.719 0 01-.068.573 4.17 4.17 0 01-.42.621 15.001 15.001 0 01-3.796 3.11 2.67 2.67 0 01-.447.174z" fill="#D3D3D3"/></g><defs><clipPath id="clip0_556_351"><path fill="#fff" d="M0 0h19v19.022H0z"/></clipPath></defs></svg>
